static/img/kroki/7ac954bbd6b030ca884d2da9871da9be.svg

<?xml version="1.0" encoding="us-ascii" standalone="no"?><svg xmlns="http://www.w3.org/2000/svg" xmlns:xlink="http://www.w3.org/1999/xlink" contentStyleType="text/css" height="152px" preserveAspectRatio="none" style="width:262px;height:152px;" version="1.1" viewBox="0 0 262 152" width="262px" zoomAndPan="magnify"><defs/><g><!--class aws_backup_framework--><g id="elem_aws_backup_framework"><rect codeLine="23" fill="#3D176E" height="39.7891" id="aws_backup_framework" rx="2.5" ry="2.5" style="stroke:#000D19;stroke-width:0.5;" width="244" x="9" y="7"/><ellipse cx="24" cy="26.8945" fill="#ADD1B2" rx="11" ry="11" style="stroke:#181818;stroke-width:1.0;"/><path d="M26.9688,32.5352 Q26.3906,32.832 25.75,32.9727 Q25.1094,33.1289 24.4063,33.1289 Q21.9063,33.1289 20.5781,31.4883 Q19.2656,29.832 19.2656,26.707 Q19.2656,23.582 20.5781,21.9258 Q21.9063,20.2695 24.4063,20.2695 Q25.1094,20.2695 25.75,20.4258 Q26.4063,20.582 26.9688,20.8789 L26.9688,23.5977 Q26.3438,23.0195 25.75,22.7539 Q25.1563,22.4727 24.5313,22.4727 Q23.1875,22.4727 22.5,23.5508 Q21.8125,24.6133 21.8125,26.707 Q21.8125,28.8008 22.5,29.8789 Q23.1875,30.9414 24.5313,30.9414 Q25.1563,30.9414 25.75,30.6758 Q26.3438,30.3945 26.9688,29.8164 L26.9688,32.5352 Z " fill="#000000"/><text fill="#D9B8FF" font-family="Helvetica" font-size="17" lengthAdjust="spacing" textLength="202" x="43" y="32.7798">aws_backup_framework</text></g><!--class aws_backup_report_plan--><g id="elem_aws_backup_report_plan"><rect codeLine="26" fill="#3D176E" height="39.7891" id="aws_backup_report_plan" rx="2.5" ry="2.5" style="stroke:#000D19;stroke-width:0.5;" width="248" x="7" y="106.79"/><ellipse cx="22" cy="126.6845" fill="#ADD1B2" rx="11" ry="11" style="stroke:#181818;stroke-width:1.0;"/><path d="M24.9688,132.3252 Q24.3906,132.622 23.75,132.7627 Q23.1094,132.9189 22.4063,132.9189 Q19.9063,132.9189 18.5781,131.2783 Q17.2656,129.622 17.2656,126.497 Q17.2656,123.372 18.5781,121.7158 Q19.9063,120.0595 22.4063,120.0595 Q23.1094,120.0595 23.75,120.2158 Q24.4063,120.372 24.9688,120.6689 L24.9688,123.3877 Q24.3438,122.8095 23.75,122.5439 Q23.1563,122.2627 22.5313,122.2627 Q21.1875,122.2627 20.5,123.3408 Q19.8125,124.4033 19.8125,126.497 Q19.8125,128.5908 20.5,129.6689 Q21.1875,130.7314 22.5313,130.7314 Q23.1563,130.7314 23.75,130.4658 Q24.3438,130.1845 24.9688,129.6064 L24.9688,132.3252 Z " fill="#000000"/><text fill="#D9B8FF" font-family="Helvetica" font-size="17" lengthAdjust="spacing" textLength="206" x="41" y="132.5698">aws_backup_report_plan</text></g><!--link aws_backup_framework to aws_backup_report_plan--><g id="link_aws_backup_framework_aws_backup_report_plan"><path codeLine="29" d="M131,47.22 C131,64.36 131,83.27 131,100.41 " fill="none" id="aws_backup_framework-to-aws_backup_report_plan" style="stroke:#1A83AF;stroke-width:2.0;"/><polygon fill="#1A83AF" points="131,106.41,135,97.41,131,101.41,127,97.41,131,106.41" style="stroke:#1A83AF;stroke-width:2.0;"/></g><!--SRC=[XP1FIyD04CNl-HGBFHSIYoQz235Gz5B4UXCfa-niioJPNMOtXYf-TrkhicRxvphlzsRUcrfoPDWPjsKTTYMIZMmZbG62ZkL4UYXqgubDX00nIyVYGYjt4LX2X-mUspTqie8nyLpBgb5eBRlof3kecWtfNl73UaUWx4v2vJogQC7Qt3cIPU_G2yFdPIR4c1mldSnuajvWW6dYI3z87CSycO-HYwVEzluZLl8TMU8_RQaT1Z634z_KsPHxmWiP5FtLJsPy1Cwbsh1hR_Pqo4GAwTzyLGFNmvuMq5h_Z7L8gDtMO16qmdd6HNeKVZW5HzN-TGm6kovtI6_MOkV4GLF3FgBeCzG9ZIQtDYse0t7KEtsP97asonUlqziJxkWB]--></g></svg>

<svg xmlns="http://www.w3.org/2000/svg" width="262" height="152" viewBox="0 0 262 152"><rect width="244" height="39.789" x="9" y="7" fill="#3D176E" rx="2.5" ry="2.5" style="stroke:#000d19;stroke-width:.5"/><circle cx="24" cy="26.895" r="11" fill="#ADD1B2" style="stroke:#181818;stroke-width:1"/><path d="M26.969 32.535q-.578.297-1.219.438-.64.156-1.344.156-2.5 0-3.828-1.64-1.312-1.657-1.312-4.782t1.312-4.781q1.328-1.656 3.828-1.656.703 0 1.344.156.656.156 1.219.453v2.719q-.625-.578-1.219-.844-.594-.281-1.219-.281-1.343 0-2.031 1.078-.687 1.062-.687 3.156t.687 3.172q.688 1.062 2.031 1.062.625 0 1.219-.265.594-.281 1.219-.86z"/><text x="43" y="32.78" fill="#D9B8FF" font-family="Helvetica" font-size="17" textLength="202">aws_backup_framework</text><rect width="248" height="39.789" x="7" y="106.79" fill="#3D176E" rx="2.5" ry="2.5" style="stroke:#000d19;stroke-width:.5"/><circle cx="22" cy="126.684" r="11" fill="#ADD1B2" style="stroke:#181818;stroke-width:1"/><path d="M24.969 132.325q-.578.297-1.219.438-.64.156-1.344.156-2.5 0-3.828-1.64-1.312-1.657-1.312-4.782t1.312-4.781q1.328-1.656 3.828-1.656.703 0 1.344.156.656.156 1.219.453v2.719q-.625-.579-1.219-.844-.594-.281-1.219-.281-1.343 0-2.031 1.078-.687 1.062-.687 3.156t.687 3.172q.688 1.062 2.031 1.062.625 0 1.219-.265.594-.281 1.219-.86z"/><text x="41" y="132.57" fill="#D9B8FF" font-family="Helvetica" font-size="17" textLength="206">aws_backup_report_plan</text><path fill="none" d="M131 47.22v53.19" style="stroke:#1a83af;stroke-width:2"/><path fill="#1A83AF" d="m131 106.41 4-9-4 4-4-4z" style="stroke:#1a83af;stroke-width:2"/></svg>
